!!! OTL: Berkowitz528
!!! Chapter: 1
!!! Section: IV
!!! Page: 132
!!! Mode: 
!!! Encoder: DJB
**kern
*staff1
*I"Piano
=1-
*clefG2
*k[b-e-a-d-]
*f:
*M4/4
4r
4r
4r
4c/
=2
8f/L
8g/
8a-/
8b-/J
4cc\
8b-/L
8a-/J
=3
4g/
4a-/
4f/
4g/
=4
4en/
8g/L
8an/J
4bn\
8a/L
8g/J
=5
4f#/
4Bn/
4en/
4c/
=6
8f/L
8g/
8a-/
8b-/J
4cc\
4cc\
=7
4dd-\
4b-\
2g-/
=8
!!linebreak:original
8dd-\
8r
8b--\
8r
2g-/
=9
8f/L
8g/
8a-/
8b-/J
4cc\
4c/
=10
4g/
8g/L
8a-/J
4f/
4r
==
*-
